X:1
T: Captain Pryce Gordon
T:aka Glen Lockart's Strathspey
N:
R:Strathspey
Q: 128
K:Eb
M:4/4
L:1/16
|:E2|GB3 B3G E3F GE3|CF3 F3E DB,3 B,A3|G3A BG3 E3F GE3|DEF2 B,A3 G2E2 E2E2|
GB3 B3G E3F GE3|CF3 F3E DB,3 B,A3|G3A BG3 E3F GE3|DEF2 B,A3 G2E2 E2B2|
GB3 eB3 dB3 fB3|e3g bg3 gf3 f3A|GB3 EG3 Ac3 FE3|DEF2 B,A3 GE3 E3B|
GB3 eB3 dB3 fB3|efga b3g gf3 f3A|GB3 Ac3 Bd3 ce3|df3 B3a g2e2 e2:|
